X: 32020
T: Peerless, The
R: hornpipe
M: 4/4
K: Cmajor
uG2|cGEG CGEG|FGDG FGDG|(EG)cd (ec)fe|dcBA .G2((3uGAB)|
vcGEG CGEG|FGDG FGDG|(EG)cd ("4"ed)cB|c2[c2E2][c2E2]:|
|:(uBc)|dBGB dBgf|"
"ecGc "4"ecag|^fdAd fdba|gafg efd"4"e|
cGEG CGEG|FGDG FGDG|(EG)cd ("4"ed)cB|c2[c2E2][c2E2]:|

